src/lib/packages/icons/src/assets/line/speaker.svg

<svg xmlns="http://www.w3.org/2000/svg" width="24" height="24" fill="none"><path fill="currentColor" d="M16 2.25H8C5.582 2.25 4.25 3.582 4.25 6v12c0 2.418 1.332 3.75 3.75 3.75h8c2.418 0 3.75-1.332 3.75-3.75V6c0-2.418-1.332-3.75-3.75-3.75ZM18.25 18c0 1.577-.673 2.25-2.25 2.25H8c-1.577 0-2.25-.673-2.25-2.25V6c0-1.577.673-2.25 2.25-2.25h8c1.577 0 2.25.673 2.25 2.25v12ZM12 10.25a4.255 4.255 0 0 0-4.25 4.25A4.255 4.255 0 0 0 12 18.75a4.255 4.255 0 0 0 4.25-4.25A4.255 4.255 0 0 0 12 10.25Zm0 7a2.752 2.752 0 0 1-2.75-2.75A2.752 2.752 0 0 1 12 11.75a2.752 2.752 0 0 1 2.75 2.75A2.752 2.752 0 0 1 12 17.25ZM11 7a1 1 0 1 1 2 0 1 1 0 0 1-2 0Zm2.25 7.5a1.25 1.25 0 1 1-2.5 0 1.25 1.25 0 0 1 2.5 0Z"/></svg>

<svg width="24" height="24" viewBox="0 0 24 24" fill="none" xmlns="http://www.w3.org/2000/svg">
<path d="M16 2.25H8C5.582 2.25 4.25 3.582 4.25 6V18C4.25 20.418 5.582 21.75 8 21.75H16C18.418 21.75 19.75 20.418 19.75 18V6C19.75 3.582 18.418 2.25 16 2.25ZM18.25 18C18.25 19.577 17.577 20.25 16 20.25H8C6.423 20.25 5.75 19.577 5.75 18V6C5.75 4.423 6.423 3.75 8 3.75H16C17.577 3.75 18.25 4.423 18.25 6V18ZM12 10.25C9.656 10.25 7.75 12.157 7.75 14.5C7.75 16.843 9.656 18.75 12 18.75C14.344 18.75 16.25 16.843 16.25 14.5C16.25 12.157 14.344 10.25 12 10.25ZM12 17.25C10.483 17.25 9.25 16.017 9.25 14.5C9.25 12.983 10.483 11.75 12 11.75C13.517 11.75 14.75 12.983 14.75 14.5C14.75 16.017 13.517 17.25 12 17.25ZM11 7C11 6.448 11.448 6 12 6C12.552 6 13 6.448 13 7C13 7.552 12.552 8 12 8C11.448 8 11 7.552 11 7ZM13.25 14.5C13.25 15.19 12.69 15.75 12 15.75C11.31 15.75 10.75 15.19 10.75 14.5C10.75 13.81 11.31 13.25 12 13.25C12.69 13.25 13.25 13.81 13.25 14.5Z" fill="currentColor"/>
</svg>
